X: 9166
T: Dalaigh's
R: polka
M: 2/4
K: Adorian
|:eA Ad|ed Bd|eA AB/A/|G2 (3ABd|
eA Ad|ed Bd|e/f/g/e/ dB|A3 A:|
ed ef|ga g2|ed eg|a2 gf|
ed ef|ga ge|dB GB|A2- A z:|

